img/inst.svg

<svg width="40" height="40" viewBox="0 0 40 40" fill="none" xmlns="http://www.w3.org/2000/svg">
<path d="M23.5156 20C23.5156 21.9415 21.9415 23.5156 20 23.5156C18.0585 23.5156 16.4844 21.9415 16.4844 20C16.4844 18.0585 18.0585 16.4844 20 16.4844C21.9415 16.4844 23.5156 18.0585 23.5156 20Z" fill="black"/>
<path d="M25.9375 9.375H14.0625C11.4777 9.375 9.375 11.4777 9.375 14.0625V25.9375C9.375 28.5223 11.4777 30.625 14.0625 30.625H25.9375C28.5223 30.625 30.625 28.5223 30.625 25.9375V14.0625C30.625 11.4777 28.5223 9.375 25.9375 9.375ZM20 25.8594C16.7691 25.8594 14.1406 23.2309 14.1406 20C14.1406 16.7691 16.7691 14.1406 20 14.1406C23.2309 14.1406 25.8594 16.7691 25.8594 20C25.8594 23.2309 23.2309 25.8594 20 25.8594ZM26.7188 14.4531C26.0715 14.4531 25.5469 13.9285 25.5469 13.2812C25.5469 12.634 26.0715 12.1094 26.7188 12.1094C27.366 12.1094 27.8906 12.634 27.8906 13.2812C27.8906 13.9285 27.366 14.4531 26.7188 14.4531Z" fill="black"/>
<path d="M29.4531 0H10.5469C4.73145 0 0 4.73145 0 10.5469V29.4531C0 35.2686 4.73145 40 10.5469 40H29.4531C35.2686 40 40 35.2686 40 29.4531V10.5469C40 4.73145 35.2686 0 29.4531 0ZM32.9688 25.9375C32.9688 29.8145 29.8145 32.9688 25.9375 32.9688H14.0625C10.1855 32.9688 7.03125 29.8145 7.03125 25.9375V14.0625C7.03125 10.1855 10.1855 7.03125 14.0625 7.03125H25.9375C29.8145 7.03125 32.9688 10.1855 32.9688 14.0625V25.9375Z" fill="black"/>
</svg>

<svg width="40" height="40" fill="none" xmlns="http://www.w3.org/2000/svg"><path d="M23.516 20a3.516 3.516 0 11-7.032 0 3.516 3.516 0 017.032 0z" fill="#000"/><path d="M25.938 9.375H14.063a4.693 4.693 0 00-4.688 4.688v11.874a4.693 4.693 0 004.688 4.688h11.874a4.693 4.693 0 004.688-4.688V14.063a4.693 4.693 0 00-4.688-4.687zM20 25.859A5.866 5.866 0 0114.14 20c0-3.23 2.63-5.86 5.86-5.86 3.23 0 5.86 2.63 5.86 5.86 0 3.23-2.63 5.86-5.86 5.86zm6.719-11.406a1.172 1.172 0 110-2.344 1.172 1.172 0 010 2.344z" fill="#000"/><path d="M29.453 0H10.547C4.73 0 0 4.731 0 10.547v18.906C0 35.27 4.731 40 10.547 40h18.906C35.27 40 40 35.269 40 29.453V10.547C40 4.73 35.269 0 29.453 0zm3.516 25.938a7.04 7.04 0 01-7.032 7.03H14.063a7.04 7.04 0 01-7.03-7.03V14.063a7.04 7.04 0 017.03-7.032h11.876a7.04 7.04 0 017.03 7.032v11.874z" fill="#000"/></svg>
